X: 8
T: You're welcome to Broadstreet
%R: march, reel
B: Chas & Sam Thompson "Twenty Four Country Dances for the Year 1765", London 1765, p.4 #2
F: http://www.vwml.org/browse/browse-collections-dance-tune-books/browse-thompsons1765#
Z: 2014 John Chambers <jc:trillian.mit.edu> (added dance description)
M: C
L: 1/16
K: G
% - - - - - - - - - - - - - - - - - - - - - - - - - - - - -
|:\
G4 cBAG B2d2A2F2 | E4 cAGF [G2G2][B2D2] [B,2d2][G,2g2] |\
G4 cBAG B2d2A2F2 | E4 cAGF G4 [G4G,4] :|
|:\
d2ef g2d2 e2c2B2A2 | B4 cBAG A2F2E2D2 |\
d2ef g2d2 e2c2B2A2 | B4 cAGF G4 [G4G,4] :|
% - - - - - - - - - - Dance description - - - - - - - - - -
%%begintext align
%% Turn right hands and cast off .|. turn left
%% hands and cast up :|. cross over and half
%% figure .|: Right and left :|:
%%endtext
